X: 4801
T:Buckley's Fancy
M:4/4
L:1/8
K:G
D|G2BG dGBG|ABcd (3efg) dB|G2BG DGBG|ABAG FDEF|!
G2BG dGBG|ABcd efga|bgaf gedB|GBAF G3:|!
(3Bcd)|g3a gede|g2bg ageg|a3b agef|g2bg egde|!
g3a gede|g2bg agef|g3a gedB|GBAF G3:|!
